icons/default/Images.svg

<g clip-path="url(#clip0)">
	<path
		d="M15.7241 1.65527H0.275862C0.123586 1.65527 0 1.77858 0 1.93114V14.0691C0 14.2216 0.123586 14.3449 0.275862 14.3449H15.7241C15.8764 14.3449 16 14.2216 16 14.0691V1.93114C16 1.77858 15.8764 1.65527 15.7241 1.65527ZM15.4483 13.7932H0.551724V2.207H15.4483V13.7932Z"
		fill="currentColor" stroke="#3D3D3D" stroke-width="0.3" />
	<path
		d="M4.41396 7.76225C5.26113 7.76225 5.95024 7.07314 5.95024 6.22625C5.95024 5.3788 5.26113 4.6897 4.41396 4.6897C3.56679 4.6897 2.87769 5.3788 2.87769 6.22597C2.87769 7.07314 3.56679 7.76225 4.41396 7.76225ZM4.41396 5.24142C4.95686 5.24142 5.39851 5.68335 5.39851 6.22597C5.39851 6.76859 4.95686 7.21052 4.41396 7.21052C3.87107 7.21052 3.42941 6.76887 3.42941 6.22625C3.42941 5.68363 3.87107 5.24142 4.41396 5.24142Z"
		fill="currentColor" stroke="#3D3D3D" stroke-width="0.3" />
	<path
		d="M1.93128 12.6898C1.99583 12.6898 2.06094 12.6672 2.11335 12.6212L6.61349 8.65922L9.45542 11.5009C9.56328 11.6087 9.73762 11.6087 9.84549 11.5009C9.95335 11.393 9.95335 11.2187 9.84549 11.1108L8.51942 9.78474L11.0521 7.01122L14.1586 9.85895C14.2709 9.96184 14.4455 9.95412 14.5484 9.84184C14.6513 9.72957 14.6438 9.55495 14.5313 9.45205L11.2209 6.41757C11.1669 6.36819 11.0949 6.34364 11.0223 6.34529C10.9492 6.3486 10.8802 6.38088 10.8309 6.43495L8.12907 9.39412L6.82066 8.08571C6.71749 7.98281 6.55252 7.97757 6.44328 8.07357L1.74894 12.2068C1.63445 12.3075 1.62342 12.4818 1.72411 12.5963C1.77873 12.6584 1.85487 12.6898 1.93128 12.6898Z"
		fill="#3D3D3D" stroke="currentColor" stroke-width="0.3" />
</g>

<g clip-path="url(#clip0)" stroke-width=".3"><path d="M15.724 1.655H.276A.276.276 0 0 0 0 1.931V14.07c0 .153.124.276.276.276h15.448a.276.276 0 0 0 .276-.276V1.931a.276.276 0 0 0-.276-.276Zm-.276 12.138H.552V2.207h14.896v11.586Z" fill="currentColor" stroke="#3D3D3D"/><path d="M4.414 7.762c.847 0 1.536-.689 1.536-1.536 0-.847-.689-1.536-1.536-1.536-.847 0-1.536.689-1.536 1.536 0 .847.689 1.536 1.536 1.536Zm0-2.52c.543 0 .985.441.985.984a.986.986 0 1 1-.985-.985Z" fill="currentColor" stroke="#3D3D3D"/><path d="M1.931 12.69c.065 0 .13-.023.182-.069l4.5-3.962 2.842 2.842a.276.276 0 1 0 .39-.39L8.52 9.785l2.533-2.774L14.16 9.86a.276.276 0 0 0 .372-.407l-3.31-3.034a.276.276 0 0 0-.39.017l-2.702 2.96-1.308-1.31a.276.276 0 0 0-.378-.011L1.75 12.207a.276.276 0 0 0 .182.483Z" fill="#3D3D3D" stroke="currentColor"/></g>
